X: 3
T:Ty a Gardd
T:House and Garden
M:6/8
L:1/8
Q:130
S:Cadw Twmpath Collection
R:Jig
A:Wales
Z:brian_martin12345@yahoo.com
K:G
B2G GFG|B2G GFG|A2A ABc|d3B3|
B2G GFG|B2G GFG|A2A ABA|G3G3:||
g2g gfe|d2d dcB|A2A ABc|d3B3|
g2g gfe|d2d d2B|A2A ABA|G3G3:||
